X:1
T:James Gibb editions
T:Improperium exspectavit - Witt
T:#
%%score [ 1 2 3 4 ]
L:1/8
Q:1/4=72
M:4/4
K:C
V:1 treble nm="Soprano" snm="S"
V:2 treble nm="Alto" snm="A"
V:3 treble-8 nm="Tenor" snm="T"
V:4 bass nm="Bass" snm="B"
V:1
"^Improperium exspectavit""^Franz Xaver Witt\n(1834-1888)"!p! E6 E2 | !^!E3 E E4 | E4!<(! E4!<)! | %3
w: Im- pro-|pe- ri- um|ex- spe-|
!>(! E4 E2!>)! E2 |!<(! E4!<)!!>(! E4!>)! | E2 E2 !^!E3 E | D4!<(! D2 D2!<)! |!>(! F3 F!>)! F4 | %8
w: cta- vit cor|me- um|et mi- se- ri-|am, et su-|sti- nu- i,|
 G4!<(! A2 A2!<)! |!>(! c4 A2!>)!!pp! A2 | G2 F2 !>!E4 | E4 D2 D2 | E4 E4 | %13
w: qui si- mul|me- cum con-|tri- sta- re-|tur, et non|fu- it,|
"^cresc." F2 F2[Q:1/4=73] !>!G4 |"^string."[Q:1/4=76]!>(! G4!>)!!f![Q:1/4=79] A2[Q:1/4=81] A2 | %15
w: et non fu-|it, et non|
"^dim."[Q:1/4=81] B4"^rit."[Q:1/4=79] B4- |[Q:1/4=77] B6[Q:1/4=75] z2 | %17
w: fu- it||
"^a tempo"!pp![Q:1/4=75]!<(!!<(! A2 A2!<)!!<)! !>!A4 | %18
w: con- so- lan-|
[Q:1/4=75][Q:1/4=75][Q:1/4=75][Q:1/4=75] A2 A4"^dolente" A2 | A4 ^G4 ||[M:3/4] z6 |!f! c2 B2 A2 | %22
w: tem me quae-|si- vi,||et non in-|
 G4 G2 | A2 G2 F2 | E4 E2 |[M:3/4]"^dim." F2 E2[Q:1/4=74] D2 |"^rit."[Q:1/4=68] C6 | %27
w: ve- ni,|et non in-|ve- ni,|et non in-|ve-|
[Q:1/4=65] C6 ||[M:4/4] z4 A2 A2 | A4 A4 | z2 G2 G2 G2 | G2 G2 G4 | %32
w: ni:|et de-|de- runt|in e- scam|me- am fel,|
[M:4/4][Q:1/4=65][Q:1/4=65][Q:1/4=65][Q:1/4=65] z4 F2 F2 | F4 E4 | E4 D4 | G6 G2 | G4 F4 | E6 E2 | %38
w: et in|si- ti|me- a|po- ta-|ve- runt|me a-|
 (A8 |"^rit. molto"[Q:1/4=64] G4[Q:1/4=62] E4 |[Q:1/4=60] D8 |"^morendo"[Q:1/4=57] D8 | %42
w: ce\-||||
[Q:1/4=56] !fermata!E8) |] %43
w: to.|
V:2
!p! C6 C2 | !^!C3 C C4 | C4!<(! C4!<)! |!>(! B,4 B,2!>)! B,2 |!<(! C4!<)!!>(! C4!>)! | %5
w: Im- pro-|pe- ri- um|ex- spe-|cta- vit cor|me- um|
 C2 C2 !^!C3 C | B,4 B,2 B,2 |!<(! C3 C!<)!!>(! C4!>)! | E4!<(! F2 F2!<)! |!>(! G4 F2!>)!!pp! F2 | %10
w: et mi- se- ri-|am, et su-|sti- nu- i,|qui si- mul|me- cum con-|
 E2 D2 !>!^C4 | ^C4 D2 D2 | D4 ^C4 |"^cresc." D2 F2 !>!F4 |"^string."!>(! E4!>)!!f! F2 A2 | %15
w: tri- sta- re-|tur, et non|fu- it,|et non fu-|it, et non|
"^dim." (A4"^rit." ^G2 ^F2) | ^G6 z2 |"^a tempo"!pp!!<(! E2 E2!<)! !>!E4 | E2 F4"^dolente" F2 | %19
w: fu\- * *|it.|con so- lan-|tem me quae-|
 E4 E4 ||[M:3/4] z6 |!f! !courtesy!=G2 G2 F2 | F4 E2 | E2 E2 D2 | D4 C2 | %25
w: si- vi,||et non in-|ve- ni,|et non in-|ve- ni,|
[M:3/4]"^dim." C2 C2 _B,2 | (_B,2"^rit." A,2 G,2) | A,6 ||[M:4/4] z4 F2 F2 | F4 E4 | z2 E2 E2 E2 | %31
w: et non in-|ve\- * *|ni:|et de-|de- runt|in e- scam|
 D2 D2 D4 |[M:4/4] z4 D2 D2 | D4 C4 | C4 B,4 | D6 D2 | D2 D2 D4- | D4 C4 | (C4 D2 C2- | %39
w: me- am fel,|et in|si- ti|me- a|po- ta-|ve- runt me|* a|ce- * *|
"^rit. molto" C2 B,2 C4- | C4 B,2 A,2 |"^morendo" B,8) | !fermata!C8 |] %43
w: |||to.|
V:3
!p! G6 G2 | !^!G3 G G4 | A6!<(! A2!<)! |!>(! A4 ^G2!>)! G2 |!<(! A4!<)!!>(! A4!>)! | %5
w: Im- pro-|pe- ri- um|ex- spe-|cta- vit cor|me- um|
 A2 A2 !^!G3 G | G4!<(! G2 G2!<)! |!>(! A3 A!>)! A4 | c4!<(! c2 c2!<)! |!>(! c4 c2!>)!!pp! c2 | %10
w: et mi- se- ri-|am, et su-|sti- nu- i,|qui si- mul|me- cum con-|
 c2 A2 !>!A4 | A2"^dim." A4 G2 | E4 A4 |"^cresc." A2 A2 !>!c4 |"^string."!>(! c4!>)!!f! c2 c2 | %15
w: tri- sta- re-|tur, et non|fu- it,|et non fu-|it, et non|
"^dim." e4"^rit." e4- | e6 z2 |"^a tempo"!pp!!<(! c2 c2!<)! !>!c4 | c2 d4"^dolente" e2 | c4 B4 || %20
w: fu- it||con- so- lan-|tem me quae-|si- vi,|
[M:3/4] z6 |!f! e2 e2 c2 | c4 c2 | c2 c2 A2 | A4 A2 |[M:3/4][K:treble-8]"^dim." A2 G2 F2 | %26
w: |et non in-|ve- ni,|et non in-|ve- ni,|et non in-|
"^rit." F6 | F6 ||[M:4/4] z4 c2 c2 | d4 A4 | z2 c2 c2 c2 | G2 G2 G4 |[M:4/4][K:treble-8] z4 F2 G2 | %33
w: ve-|ni:|et de-|de- runt|in e- scam|me- am fel,|et in|
 (A4 E2) ^F2 | G4 G4 | B6 B2 | A4 A4 | G6 G2 | (G4 F2 E2 |"^rit. molto" D4 C2 E2 | G8- | %41
w: si\- * ti|me- a|po- ta-|ve- runt|me a-|ce\- * *|||
"^morendo" G2 D4 G2) | !fermata!G8 |] %43
w: |to.|
V:4
!p! C,6 C,2 | !^!C,3 C, C,4 | A,,6!<(! A,,2!<)! |!>(! E,4 E,2!>)! E,2 |!<(! A,,4!<)!!>(! A,,4!>)! | %5
w: Im- pro-|pe- ri- um|ex- spe-|cta- vit cor|me- um|
 A,,2 A,,2 !^!C,3 C, | G,,4!<(! G,,2 G,2!<)! |!>(! F,3 F,!>)! F,4 | C,4!<(! F,2 F,2!<)! | %9
w: et mi- se- ri-|am, et su-|sti- nu- i,|qui si- mul|
!>(! E,4 F,2!>)!!pp! F,2 | C,2 D,2 !>!A,,4 | A,,4 _B,,2 B,,2 | A,,4 A,,4 | %13
w: me- cum con-|tri- sta- re-|tur, et non|fu- it,|
"^cresc." D,2 D,2 !>!C,4 |!>(! C,4!>)!!f! F,2 F,2 |"^dim." E,4"^rit." E,4- | E,6 z2 | %17
w: et non fu-|it, et non|fu- it||
"^a tempo"!pp!!<(! A,2 A,2!<)! !>!A,4 | A,2 D,4"^dolente" A,2 | A,4 E,4 ||[M:3/4] z6 | %21
w: con- so- lan-|tem me quae-|si- vi,||
!f! C2 G,2 A,2 | C4 C,2 | A,,2 C,2 D,2 | A,4 A,,2 |[M:3/4]"^dim." F,2 C,2 D,2 |"^rit." (F,4 F,,2) | %27
w: et non in-|ve- ni,|et non in-|ve- ni,|et non in-|ve\- *|
 F,,6 ||[M:4/4] z4 F,2 F,2 | D,4 C,4 | z2 C,2 C,2 C,2 | C,2 B,,2 _B,,4 |[M:4/4] z4 _B,,2 B,,2 | %33
w: ni:|et de-|de- runt|in e- scam|me- am fel,|et in|
 A,,4 A,,4 | G,,4 G,,4 | G,6 G,2 | D,4 D,4 | E,6 C,2 | (F,,8 |"^rit. molto" G,,8- | G,,8 | %41
w: si- ti|me- a|po- ta-|ve- runt|me a-|ce\-|||
"^morendo" G,,8) | !fermata!C,8 |] %43
w: |to.|

